src/topics/icons/api-ai.svg

<?xml version="1.0" encoding="UTF-8" standalone="no"?>
<svg width="256px" height="313px" viewBox="0 0 256 313" version="1.1" xmlns="http://www.w3.org/2000/svg" xmlns:xlink="http://www.w3.org/1999/xlink" preserveAspectRatio="xMidYMid">
    <g>
        <path d="M76.3791,312.096902 L76.3791,258.048902 L9.0071,223.220902 C3.4751,220.360902 0.0001,214.652902 0.0001,208.424902 L0.0001,96.875902 L114.3241,158.539902 C121.6151,162.472902 130.3961,162.478902 137.6921,158.554902 L256.0001,94.933902 L256.0001,206.542902 C256.0001,211.160902 253.4781,215.409902 249.4251,217.622902 L76.3791,312.096902 Z M135.864,140.815902 L256,76.809902 L256,72.009902 C256,68.193902 253.889,64.689902 250.516,62.905902 L135.677,2.17690196 C130.168,-0.736098038 123.572,-0.725098038 118.073,2.20690196 L5.414,62.889902 C2.079,64.685902 0,68.167902 0,71.955902 L0,78.751902 L116.15,140.804902 C122.308,144.094902 129.702,144.098902 135.864,140.815902 Z" fill="#EA6F21"></path>
    </g>
</svg>

<svg height="313" preserveAspectRatio="xMidYMid" viewBox="0 0 256 313" width="256" xmlns="http://www.w3.org/2000/svg"><path d="m76.3791 312.096902v-54.048l-67.372-34.828c-5.532-2.86-9.007-8.568-9.007-14.796v-111.549l114.324 61.664c7.291 3.933 16.072 3.939 23.368.015l118.308-63.621v111.609c0 4.618-2.522 8.867-6.575 11.08zm59.4849-171.281 120.136-64.006v-4.8c0-3.816-2.111-7.32-5.484-9.104l-114.839-60.72900004c-5.509-2.913-12.105-2.902-17.604.03l-112.659 60.68300004c-3.335 1.796-5.414 5.278-5.414 9.066v6.796l116.15 62.053c6.158 3.29 13.552 3.294 19.714.011z" fill="#ea6f21"/></svg>
